dist/img/svg/ic_swiper-next.svg

<svg width="7" height="14" viewBox="0 0 7 14" xmlns="http://www.w3.org/2000/svg">
    <path
        d="M7 7.28733C7 7.52794 6.91597 7.76852 6.74825 7.95197L1.46804 13.7246C1.13215 14.0918 0.587565 14.0918 0.251814 13.7246C-0.0839379 13.3575 -0.0839379 12.7623 0.251814 12.395L4.92404 7.28733L0.251976 2.17961C-0.0837752 1.8124 -0.0837753 1.2172 0.251976 0.850163C0.587728 0.482771 1.13231 0.482771 1.4682 0.850163L6.74842 6.6227C6.91616 6.80623 7 7.04681 7 7.28733Z" />
</svg>

<svg width="7" height="14" viewBox="0 0 7 14" xmlns="http://www.w3.org/2000/svg"><path d="M7 7.287c0 .24-.084.482-.252.665l-5.28 5.773a.81.81 0 01-1.216 0 1.003 1.003 0 010-1.33l4.672-5.108L.252 2.18a1.003 1.003 0 010-1.33.809.809 0 011.216 0l5.28 5.773A.984.984 0 017 7.287z"/></svg>
